svg/radar.svg

<svg xmlns="http://www.w3.org/2000/svg" viewBox="0 0 24 24"><path d="m19.07 4.93-1.41 1.41A8 8 0 0 1 20 12a8 8 0 0 1-8 8 8 8 0 0 1-8-8c0-4.08 3.05-7.44 7-7.93v2.02C8.16 6.57 6 9.03 6 12a6 6 0 0 0 6 6 6 6 0 0 0 6-6c0-1.66-.67-3.16-1.76-4.24l-1.41 1.41C15.55 9.9 16 10.9 16 12a4 4 0 0 1-4 4 4 4 0 0 1-4-4c0-1.86 1.28-3.41 3-3.86v2.14c-.6.35-1 .98-1 1.72a2 2 0 0 0 2 2 2 2 0 0 0 2-2c0-.74-.4-1.38-1-1.72V2h-1A10 10 0 0 0 2 12a10 10 0 0 0 10 10 10 10 0 0 0 10-10c0-2.76-1.12-5.26-2.93-7.07"/></svg>

<?xml version="1.0" encoding="UTF-8"?><!DOCTYPE svg PUBLIC "-//W3C//DTD SVG 1.1//EN" "http://www.w3.org/Graphics/SVG/1.1/DTD/svg11.dtd"><svg xmlns="http://www.w3.org/2000/svg" xmlns:xlink="http://www.w3.org/1999/xlink" version="1.1" id="mdi-radar" width="24" height="24" viewBox="0 0 24 24"><path d="M19.07,4.93L17.66,6.34C19.1,7.79 20,9.79 20,12A8,8 0 0,1 12,20A8,8 0 0,1 4,12C4,7.92 7.05,4.56 11,4.07V6.09C8.16,6.57 6,9.03 6,12A6,6 0 0,0 12,18A6,6 0 0,0 18,12C18,10.34 17.33,8.84 16.24,7.76L14.83,9.17C15.55,9.9 16,10.9 16,12A4,4 0 0,1 12,16A4,4 0 0,1 8,12C8,10.14 9.28,8.59 11,8.14V10.28C10.4,10.63 10,11.26 10,12A2,2 0 0,0 12,14A2,2 0 0,0 14,12C14,11.26 13.6,10.62 13,10.28V2H12A10,10 0 0,0 2,12A10,10 0 0,0 12,22A10,10 0 0,0 22,12C22,9.24 20.88,6.74 19.07,4.93Z" /></svg>
